X: 1
T: Bonnie Charlie
Z: Gus Barbary
S: https://thesession.org/tunes/15893#setting29894
R: hornpipe
M: 4/4
L: 1/8
K: Dmin
|:D3EF2FG | ABGB A2GB | A2D2D3F | EFEC A,2A,C |
D3EF2FG | ABGB A2GB | A2D2FED^C | D6 AF |2 Ac :|
dedc A3c | dedc A3f | efge c3f | efge c2fg |
a2fa g2eg | f2df e2^ce | d3e fedc | A2 d2 d2 A2 |
dedc A2A2 | f2f2 A3c | BAGF GFED | EFGE C2EF
D3EF2FG | ABGB A2GB | A2D2FED^C | D8 ||
